components/Icon/icons/css.svg

<svg width="50" height="50" viewBox="0 0 50 50" fill="none" xmlns="http://www.w3.org/2000/svg">
<path d="M9.2219 42.5016L5.71252 3.125H44.2875L40.7735 42.4953L24.9766 46.875L9.2219 42.5016Z" fill="#1572B6"/>
<path d="M25 43.5282L37.7656 39.9891L40.7687 6.34534H25V43.5282Z" fill="#33A9DC"/>
<path d="M25 20.6109H31.3906L31.8312 15.6656H25V10.8359H37.1094L36.9938 12.1312L35.8078 25.4406H25V20.6109V20.6109Z" fill="white"/>
<path d="M25.0297 33.1532L25.0078 33.1594L19.6297 31.7063L19.2859 27.8547H14.4375L15.1141 35.4376L25.0062 38.1844L25.0297 38.1782V33.1532V33.1532Z" fill="#EBEBEB"/>
<path d="M30.9797 25.236L30.3985 31.7032L25.0125 33.1563V38.1813L34.9125 35.4375L34.986 34.6219L35.825 25.236H30.9797V25.236Z" fill="white"/>
<path d="M25.0172 10.8359V15.6656H13.3516L13.2547 14.5797L13.0344 12.1313L12.9188 10.8359H25.0172V10.8359Z" fill="#EBEBEB"/>
<path d="M25 20.611V25.4406H19.6891L19.5922 24.3547L19.3734 21.9063L19.2578 20.611H25V20.611Z" fill="#EBEBEB"/>
</svg>

<svg xmlns="http://www.w3.org/2000/svg"
viewBox="0 0 50 50" width="100%" height="100%" fill="currentColor"  xmlns:v="https://vecta.io/nano"><path d="M9.222 42.502L5.713 3.125h38.575l-3.514 39.37-15.797 4.38-15.755-4.373z" fill="#1572b6"/><path d="M25 43.528l12.766-3.539 3.003-33.644H25v37.183z" fill="#33a9dc"/><path d="M25 20.611h6.391l.441-4.945H25v-4.83h12.109l-1.302 14.605H25v-4.83z" fill="#fff"/><path d="M25.03 33.153l-.022.006-5.378-1.453-.344-3.852h-4.848l.677 7.583 9.892 2.747.023-.006v-5.025z" fill="#ebebeb"/><path d="M30.98 25.236l-.581 6.467-5.386 1.453v5.025l9.9-2.744.073-.816.839-9.386H30.98z" fill="#fff"/><path d="M25.017 10.836v4.83H13.352l-.433-4.83h12.098zM25 20.611v4.83h-5.311l-.431-4.83H25z" fill="#ebebeb"/></svg>
